communes/102.svg

<?xml version="1.0" encoding="UTF-8" standalone="no"?>
<svg
   xmlns:dc="http://purl.org/dc/elements/1.1/"
   xmlns:cc="http://creativecommons.org/ns#"
   xmlns:rdf="http://www.w3.org/1999/02/22-rdf-syntax-ns#"
   xmlns:svg="http://www.w3.org/2000/svg"
   xmlns="http://www.w3.org/2000/svg"
   xmlns:sodipodi="http://sodipodi.sourceforge.net/DTD/sodipodi-0.dtd"
   xmlns:inkscape="http://www.inkscape.org/namespaces/inkscape"
   version="1.0"
   width="239.90236"
   height="281.00818"
   id="svg2780"
   sodipodi:docname="102.svg">
  <metadata
     id="metadata12">
    <rdf:RDF>
      <cc:Work
         rdf:about="">
        <dc:format>image/svg+xml</dc:format>
        <dc:type
           rdf:resource="http://purl.org/dc/dcmitype/StillImage" />
      </cc:Work>
    </rdf:RDF>
  </metadata>
  <sodipodi:namedview
     pagecolor="#ffffff"
     bordercolor="#666666"
     borderopacity="1"
     objecttolerance="10"
     gridtolerance="10"
     guidetolerance="10"
     inkscape:pageopacity="0"
     inkscape:pageshadow="2"
     inkscape:window-width="640"
     inkscape:window-height="480"
     id="namedview10" />
  <defs
     id="defs2782" />
  <g
     transform="translate(-8.870574,-795.32384)"
     id="layer1">
    <path
       d="M 9.870574,796.32384 L 14.196063,978.00362 C 17.285696,1107.7748 240.35779,1107.7748 243.44743,978.00362 L 247.77293,796.32384 L 9.870574,796.32384 z"
       id="path5652"
       style="fill:#ffffff;fill-opacity:1;fill-rule:evenodd;stroke:none;stroke-width:2;stroke-linecap:butt;stroke-miterlimit:4;stroke-dashoffset:0;stroke-opacity:1" />
    <path
       d="M 0,-2.46875 L 4.3125,179.21875 C 6.9334996,289.30633 167.85432,306.00407 218.5,229.3125 L 0,-2.46875 z"
       transform="translate(9.870574,798.78023)"
       id="path4240"
       style="fill:#2764c7;fill-opacity:1;fill-rule:evenodd;stroke:#000000;stroke-width:1pt;stroke-linecap:butt;stroke-linejoin:miter;stroke-opacity:1" />
    <path
       d="M 62.771212,852.42873 L 194.87229,992.56336 L 144.22497,961.31543 L 128.82175,1017.3479 L 113.41853,961.31543 L 62.771212,992.56336 L 90.516537,938.41345 L 33.985403,922.49604 L 90.516537,906.57864 L 62.771212,852.42873 z"
       id="path4248"
       style="fill:#ffffff;fill-opacity:1;fill-rule:evenodd;stroke:#000000;stroke-width:1pt;stroke-linecap:butt;stroke-linejoin:miter;stroke-opacity:1" />
    <path
       d="M 194.87229,992.56336 L 62.771212,852.42873 L 113.41853,883.67666 L 128.82175,827.64427 L 144.22497,883.67666 L 194.87229,852.42873 L 167.12697,906.57864 L 223.6581,922.49604 L 167.12697,938.41345 L 194.87229,992.56336 z"
       id="path4246"
       style="fill:#2764c7;fill-opacity:1;fill-rule:evenodd;stroke:#000000;stroke-width:1pt;stroke-linecap:butt;stroke-linejoin:miter;stroke-opacity:1" />
    <path
       d="M 9.870574,796.32384 L 14.196063,978.00362 C 17.285696,1107.7748 240.35779,1107.7748 243.44743,978.00362 L 247.77293,796.32384 L 9.870574,796.32384 z"
       id="path4270"
       style="fill:none;fill-opacity:1;fill-rule:evenodd;stroke:#000000;stroke-width:2;stroke-linecap:butt;stroke-miterlimit:4;stroke-dashoffset:0;stroke-opacity:1" />
  </g>
</svg>

<?xml version="1.0" encoding="UTF-8"?>
<svg version="1.0" viewBox="0 0 239.9 281.01" xmlns="http://www.w3.org/2000/svg" xmlns:cc="http://creativecommons.org/ns#" xmlns:dc="http://purl.org/dc/elements/1.1/" xmlns:rdf="http://www.w3.org/1999/02/22-rdf-syntax-ns#">
<metadata>
<rdf:RDF>
<cc:Work rdf:about="">
<dc:format>image/svg+xml</dc:format>
<dc:type rdf:resource="http://purl.org/dc/dcmitype/StillImage"/>
</cc:Work>
</rdf:RDF>
</metadata>
<g transform="translate(-8.8706 -795.32)">
<path d="m9.8706 796.32 4.3255 181.68c3.0896 129.77 226.16 129.77 229.25 0l4.3255-181.68h-237.9z" fill="#fff" fill-rule="evenodd"/>
<path transform="translate(9.8706 798.78)" d="m0-2.4688 4.3125 181.69c2.621 110.09 163.54 126.79 214.19 50.094l-218.5-231.78z" fill="#2764c7" fill-rule="evenodd" stroke="#000" stroke-width="1pt"/>
<path d="m62.771 852.43 132.1 140.13-50.647-31.248-15.403 56.032-15.403-56.032-50.647 31.248 27.745-54.15-56.531-15.917 56.531-15.917-27.745-54.15z" fill="#fff" fill-rule="evenodd" stroke="#000" stroke-width="1pt"/>
<path d="m194.87 992.56-132.1-140.13 50.647 31.248 15.403-56.032 15.403 56.032 50.647-31.248-27.745 54.15 56.531 15.917-56.531 15.917 27.745 54.15z" fill="#2764c7" fill-rule="evenodd" stroke="#000" stroke-width="1pt"/>
<path d="m9.8706 796.32 4.3255 181.68c3.0896 129.77 226.16 129.77 229.25 0l4.3255-181.68h-237.9z" fill="none" stroke="#000" stroke-width="2"/>
</g>
</svg>
